src/assets/outline/Aave.svg

<svg width="24" height="24" viewBox="0 0 24 24"  xmlns="http://www.w3.org/2000/svg">
<path d="M15.9998 16.7499C15.7098 16.7499 15.4398 16.5799 15.3098 16.2999L11.9998 8.84992L8.68984 16.3099C8.51984 16.6899 8.06985 16.8599 7.69985 16.6899C7.31985 16.5199 7.14985 16.0799 7.31985 15.6999L11.3198 6.69992C11.5598 6.15992 12.4498 6.15992 12.6898 6.69992L16.6898 15.6999C16.8598 16.0799 16.6898 16.5199 16.3098 16.6899C16.2098 16.7299 16.0998 16.7499 15.9998 16.7499Z" />
<path d="M12 12.75H8C7.59 12.75 7.25 12.41 7.25 12C7.25 11.59 7.59 11.25 8 11.25H12C12.41 11.25 12.75 11.59 12.75 12C12.75 12.41 12.41 12.75 12 12.75Z" />
<path d="M12 22.75C6.07 22.75 1.25 17.93 1.25 12C1.25 6.07 6.07 1.25 12 1.25C17.93 1.25 22.75 6.07 22.75 12C22.75 17.93 17.93 22.75 12 22.75ZM12 2.75C6.9 2.75 2.75 6.9 2.75 12C2.75 17.1 6.9 21.25 12 21.25C17.1 21.25 21.25 17.1 21.25 12C21.25 6.9 17.1 2.75 12 2.75Z" />
</svg>

<?xml version="1.0" encoding="UTF-8"?>
<svg width="24" height="24" viewBox="0 0 24 24" xmlns="http://www.w3.org/2000/svg">
 <path d="m16 16.75c-0.29 0-0.56-0.17-0.69-0.45l-3.31-7.45-3.31 7.46c-0.17 0.38-0.61999 0.55-0.98999 0.38-0.38-0.17-0.55-0.61-0.38-0.99l4-9c0.24-0.54 1.13-0.54 1.37 0l4 9c0.17 0.38 0 0.82-0.38 0.99-0.1 0.04-0.21 0.06-0.31 0.06z"/>
 <path d="m12 12.75h-4c-0.41 0-0.75-0.34-0.75-0.75s0.34-0.75 0.75-0.75h4c0.41 0 0.75 0.34 0.75 0.75s-0.34 0.75-0.75 0.75z"/>
 <path d="m12 22.75c-5.93 0-10.75-4.82-10.75-10.75s4.82-10.75 10.75-10.75 10.75 4.82 10.75 10.75-4.82 10.75-10.75 10.75zm0-20c-5.1 0-9.25 4.15-9.25 9.25s4.15 9.25 9.25 9.25 9.25-4.15 9.25-9.25-4.15-9.25-9.25-9.25z"/>
</svg>
